svgs/light/road-bridge.svg

<svg xmlns="http://www.w3.org/2000/svg" viewBox="0 0 640 512"><!--! Font Awesome Pro 6.6.0 by @fontawesome - https://fontawesome.com License - https://fontawesome.com/license (Commercial License) Copyright 2024 Fonticons, Inc. --><path d="M576 32c17.7 0 32 14.3 32 32l0 384c0 17.7-14.3 32-32 32l-80 0 0-64c0-8.8-7.2-16-16-16s-16 7.2-16 16l0 64-80 0c-17.7 0-32-14.3-32-32l0-384c0-17.7 14.3-32 32-32l80 0 0 64c0 8.8 7.2 16 16 16s16-7.2 16-16l0-64 80 0zm0-32L384 0c-35.3 0-64 28.7-64 64l0 384c0 35.3 28.7 64 64 64l192 0c35.3 0 64-28.7 64-64l0-384c0-35.3-28.7-64-64-64zM480 192c-8.8 0-16 7.2-16 16l0 96c0 8.8 7.2 16 16 16s16-7.2 16-16l0-96c0-8.8-7.2-16-16-16zM16 96c-8.8 0-16 7.2-16 16s7.2 16 16 16l64 0 0 64-64 0c-8.8 0-16 7.2-16 16s7.2 16 16 16l272 0 0-32-48 0 0-64 48 0 0-32L16 96zM264 288c-48.6 0-88 39.4-88 88l0 88c0 8.8-7.2 16-16 16l-32 0c-8.8 0-16-7.2-16-16l0-88c0-48.6-39.4-88-88-88l-8 0c-8.8 0-16 7.2-16 16s7.2 16 16 16l8 0c30.9 0 56 25.1 56 56l0 88c0 26.5 21.5 48 48 48l32 0c26.5 0 48-21.5 48-48l0-88c0-30.9 25.1-56 56-56l24 0 0-32-24 0zM208 128l0 64-96 0 0-64 96 0z"/></svg>

<svg xmlns="http://www.w3.org/2000/svg" viewBox="0 0 640 512"><!--! Font Awesome Pro 6.4.2 by @fontawesome - https://fontawesome.com License - https://fontawesome.com/license (Commercial License) Copyright 2023 Fonticons, Inc. --><path d="M576 32c17.7 0 32 14.3 32 32V448c0 17.7-14.3 32-32 32H496V416c0-8.8-7.2-16-16-16s-16 7.2-16 16v64H384c-17.7 0-32-14.3-32-32V64c0-17.7 14.3-32 32-32h80V96c0 8.8 7.2 16 16 16s16-7.2 16-16V32h80zm0-32H384c-35.3 0-64 28.7-64 64V448c0 35.3 28.7 64 64 64H576c35.3 0 64-28.7 64-64V64c0-35.3-28.7-64-64-64zM480 192c-8.8 0-16 7.2-16 16v96c0 8.8 7.2 16 16 16s16-7.2 16-16V208c0-8.8-7.2-16-16-16zM16 96c-8.8 0-16 7.2-16 16s7.2 16 16 16H80v64H16c-8.8 0-16 7.2-16 16s7.2 16 16 16H288V192H240V128h48V96H16zM264 288c-48.6 0-88 39.4-88 88v88c0 8.8-7.2 16-16 16H128c-8.8 0-16-7.2-16-16V376c0-48.6-39.4-88-88-88H16c-8.8 0-16 7.2-16 16s7.2 16 16 16h8c30.9 0 56 25.1 56 56v88c0 26.5 21.5 48 48 48h32c26.5 0 48-21.5 48-48V376c0-30.9 25.1-56 56-56h24V288H264zM208 128v64H112V128h96z"/></svg>
